X: 19576
T: James Murray's
R: reel
M: 4/4
K: Gmajor
BAGB dBGA|BAGB AEE2|BAGB dBGE|DEGA BGG2|
BAGB dBGA|BAGB ABGE|DBGF GBd^c|dega bgg2|
b2gb abge|dBGA Bcda|bgg2 a2ge|dega bgg2|
b2gb abge|dBGA Bcde|dBAc BAGE|DEGA BGG2|

